X:17
T:An dro  lenigo (E. Grandjean)
C:E. Grandjean: L'amant doux
M:4/4
L:1/8
K:C
e2 fe ~d3 B|c2 d2 cB A2|\
e2 fe ~d3B|c2 cB A4:|\
A2 Bc d2 d2|B2 cd e4|
a2 gf d3c|d2 f2 ed e2|\
A2 Bc d2 d2|GBdg e4|\
a2 gf d3c|d2 df e4||
